X: 262
T: the Turk's March
B: C. & S. Thompson, "The Compleat Tutor for the Fife" c.1760 p.26 #2
S: http://imslp.org/wiki/The_Compleat_Tutor_for_the_Fife_(Anonymous)
Z: 2014 John Chambers <jc:trillian.mit.edu>
M: 6/8
L: 1/8
K: G
% - - - - - - - - - - - - - - - - - - - - - - - - -
d/c/ |\
B2B Bcd | G2G GFG |\
A2A ABc | BAB G2A |\
B2B B^cd | cdB A2g |\
fed AB^c |1 dAF D2 :|2 D3- D2 :|
|: d |\
e2d def | e2d e2d |\
c2B A>BG | FDF D2D |\
G2G GAF | {F}E3- E2F |\
A2A ABG | FEF D2d |\
BAG DEF | G3- G2 :|
% - - - - - - - - - - - - - - - - - - - - - - - - -
